assets/Passenger ship/Flat/passenger_ship_flat.svg

<svg width="32" height="32" viewBox="0 0 32 32" fill="none" xmlns="http://www.w3.org/2000/svg">
<path d="M12 13L14.7793 10.2353C14.9559 10.0471 15.2207 10 15.3311 10H17L20.5 9.5L24 10H25L27.5 9.9L30 10V13L21 14L12 13Z" fill="#CDC4D6"/>
<path d="M17.01 9.80189C17.01 9.35849 17.369 9 17.8077 9H23.2023C23.641 9 24 9.35849 24 9.80189V10H17.01V9.80189ZM10.577 13.47C10.8879 13.17 11.309 13 11.7402 13H30V16L20 17L8 16L10.577 13.47Z" fill="#E1D8EC"/>
<path d="M4.58661 16C3.62475 16 2.87552 16.8482 3.01727 17.7862L3.6045 21.8974C3.96711 23.9636 4.80968 25.685 6 27.0021C6.72681 27.8063 8.04397 28.0108 9 28.5C10.3449 29.1881 11.4262 30 13.0814 30H30V16H4.58661Z" fill="#CDC4D6"/>
<path d="M20 7.80745C19.8468 7.66981 19.75 7.4705 19.75 7.25C19.75 6.83803 20.088 6.5 20.5 6.5C20.912 6.5 21.25 6.83803 21.25 7.25C21.25 7.47049 21.1532 7.6698 21 7.80744V9H20V7.80745Z" fill="#533566"/>
<path d="M28.8317 5C27.7129 5 26.703 5.68317 26.2871 6.73267L25 10H30V5.63366C30 5.28713 29.7228 5 29.3663 5H28.8317ZM8.45047 23C8.19904 23 8 23.22 8 23.5C8 23.78 8.19904 24 8.45047 24H30V23H8.45047ZM30 30H13.0355C10.2538 30 7.71574 28.8179 6 27H30V30Z" fill="#533566"/>
<path d="M13 12L14 11H30.01V12H13ZM10.34 18C10.15 18 10 18.15 10 18.34V19.66C10 19.85 10.15 20 10.34 20H10.67C10.86 20 11.01 19.85 11.01 19.66V18.34C11.01 18.15 10.86 18 10.67 18H10.34ZM12 18.34C12 18.15 12.15 18 12.34 18H12.67C12.86 18 13.01 18.15 13.01 18.34V19.66C13.01 19.85 12.86 20 12.67 20H12.34C12.15 20 12 19.85 12 19.66V18.34ZM14.35 18C14.16 18 14.01 18.15 14.01 18.34V19.66C14.01 19.85 14.16 20 14.35 20H14.68C14.87 20 15.02 19.85 15.02 19.66V18.34C15.02 18.15 14.87 18 14.68 18H14.35ZM16 18.34C16 18.15 16.15 18 16.34 18H16.67C16.86 18 17.01 18.15 17.01 18.34V19.66C17.01 19.85 16.86 20 16.67 20H16.34C16.15 20 16 19.85 16 19.66V18.34ZM21.34 18C21.15 18 21 18.15 21 18.34V19.66C21 19.85 21.15 20 21.34 20H21.67C21.86 20 22.01 19.85 22.01 19.66V18.34C22.01 18.15 21.86 18 21.67 18H21.34ZM23 18.34C23 18.15 23.15 18 23.34 18H23.67C23.86 18 24.01 18.15 24.01 18.34V19.66C24.01 19.85 23.86 20 23.67 20H23.34C23.15 20 23 19.85 23 19.66V18.34ZM25.34 18C25.15 18 25 18.15 25 18.34V19.66C25 19.85 25.15 20 25.34 20H25.67C25.86 20 26.01 19.85 26.01 19.66V18.34C26.01 18.15 25.86 18 25.67 18H25.34ZM27.34 18C27.15 18 27 18.15 27 18.34V19.66C27 19.85 27.15 20 27.34 20H27.67C27.86 20 28.01 19.85 28.01 19.66V18.34C28.01 18.15 27.86 18 27.67 18H27.34ZM10.0168 14L9 15H30V14H10.0168ZM6.5 19C6.22 19 6 18.78 6 18.5C6 18.23 6.22 18 6.5 18C6.78 18 7 18.22 7 18.5C7 18.78 6.78 19 6.5 19Z" fill="#00A6ED"/>
<path d="M30.01 27.8101C28.26 27.8101 28.25 28.9301 26.5 28.9301C24.75 28.9301 24.75 27.8101 22.99 27.8101C21.24 27.8101 21.24 28.9301 19.49 28.9301C17.74 28.9301 17.74 27.8101 15.99 27.8101C14.24 27.8101 14.24 28.9301 12.49 28.9301C10.74 28.9301 10.74 27.8101 8.98999 27.8101C7.23999 27.8101 7.24 28.9301 5.5 28.9301C3.75 28.9301 3.75 27.8101 2 27.8101V30.1301H30.01V27.8101Z" fill="#00A6ED"/>
</svg>

<svg xmlns="http://www.w3.org/2000/svg" width="32" height="32" fill="none"><path fill="#CDC4D6" d="m12 13 2.78-2.765A.821.821 0 0 1 15.33 10H17l3.5-.5 3.5.5h1l2.5-.1 2.5.1v3l-9 1-9-1Z"/><path fill="#E1D8EC" d="M17.01 9.802A.8.8 0 0 1 17.808 9h5.394a.8.8 0 0 1 .798.802V10h-6.99v-.198Zm-6.433 3.668c.31-.3.732-.47 1.163-.47H30v3l-10 1-12-1 2.577-2.53Z"/><path fill="#CDC4D6" d="M4.587 16c-.962 0-1.711.848-1.57 1.786l.587 4.111C3.967 23.964 4.81 25.685 6 27.002c.727.804 2.044 1.009 3 1.498 1.345.688 2.426 1.5 4.081 1.5H30V16H4.587Z"/><path fill="#533566" d="M20 7.807a.749.749 0 0 1 .5-1.307.749.749 0 0 1 .5 1.307V9h-1V7.807ZM28.832 5a2.738 2.738 0 0 0-2.545 1.733L25 10h5V5.634A.632.632 0 0 0 29.366 5h-.534ZM8.45 23c-.251 0-.45.22-.45.5s.199.5.45.5H30v-1H8.45ZM30 30H13.035c-2.781 0-5.32-1.182-7.035-3h24v3Z"/><path fill="#00A6ED" d="m13 12 1-1h16.01v1H13Zm-2.66 6c-.19 0-.34.15-.34.34v1.32c0 .19.15.34.34.34h.33c.19 0 .34-.15.34-.34v-1.32c0-.19-.15-.34-.34-.34h-.33Zm1.66.34c0-.19.15-.34.34-.34h.33c.19 0 .34.15.34.34v1.32c0 .19-.15.34-.34.34h-.33c-.19 0-.34-.15-.34-.34v-1.32Zm2.35-.34c-.19 0-.34.15-.34.34v1.32c0 .19.15.34.34.34h.33c.19 0 .34-.15.34-.34v-1.32c0-.19-.15-.34-.34-.34h-.33Zm1.65.34c0-.19.15-.34.34-.34h.33c.19 0 .34.15.34.34v1.32c0 .19-.15.34-.34.34h-.33c-.19 0-.34-.15-.34-.34v-1.32Zm5.34-.34c-.19 0-.34.15-.34.34v1.32c0 .19.15.34.34.34h.33c.19 0 .34-.15.34-.34v-1.32c0-.19-.15-.34-.34-.34h-.33Zm1.66.34c0-.19.15-.34.34-.34h.33c.19 0 .34.15.34.34v1.32c0 .19-.15.34-.34.34h-.33c-.19 0-.34-.15-.34-.34v-1.32Zm2.34-.34c-.19 0-.34.15-.34.34v1.32c0 .19.15.34.34.34h.33c.19 0 .34-.15.34-.34v-1.32c0-.19-.15-.34-.34-.34h-.33Zm2 0c-.19 0-.34.15-.34.34v1.32c0 .19.15.34.34.34h.33c.19 0 .34-.15.34-.34v-1.32c0-.19-.15-.34-.34-.34h-.33Zm-17.323-4L9 15h21v-1H10.017ZM6.5 19c-.28 0-.5-.22-.5-.5 0-.27.22-.5.5-.5s.5.22.5.5-.22.5-.5.5ZM30.01 27.81c-1.75 0-1.76 1.12-3.51 1.12-1.75 0-1.75-1.12-3.51-1.12-1.75 0-1.75 1.12-3.5 1.12s-1.75-1.12-3.5-1.12-1.75 1.12-3.5 1.12-1.75-1.12-3.5-1.12-1.75 1.12-3.49 1.12c-1.75 0-1.75-1.12-3.5-1.12v2.32h28.01v-2.32Z"/></svg>
